X: 10314
T: Dolphin, The
R: jig
M: 6/8
K: Gmajor
|:BGG dGG|eAf g2d|BGG dGG|FAd AFD|
BGG dGG|eAf g2a|bge dBA|AGF G3:|
|:bge efg|fd^c d2A|Bdg deg|~f3 afd|
bge efg|fd^c d2A|Bdg dBA|AGF G3:|

